X:1
T:Falu végén van egy ház
C:Hungarian folk song
Z:Public Domain
L:1/8
M:4/4
K:C
V:1 treble nm="Voice"
%%MIDI program 52
V:1
 A A3 c2 c2 | B B3 E4 | e e3 f2 e2 | d2 dd e2 d2 | c2 cc d2 c2 | B B3 A2 z2 |] %6
w: Fa- lu vé- gén|van egy ház.|Fa- lu vé- gén,|ú- id- ro- fid- rom,|gá- li- ca szik- szom,|van egy ház.|

